T: Splendid Isolation
M: 4/4
L: 1/8
K: Edor
|:DEED EBAF|E2 FE DEFA|BFAF EFGA|Beed e3f|
g3e dB B2|d2 ce dBAF|E2 FE DEFA|BFAF E4:||
|:e2 fe dB B2|edBA FABA|FE E2 FABA|FE E2 D4|
DEED EBAF|E2 FE DEFA|Be e2 defe|dBAF E4:||
